searx/static/themes/simple/img/img_load_error.svg

<svg xml:space="preserve" width="50.389" height="58.248" class="icon-s-0" data-fill-palette-color="accent" viewBox="17.3 12.2 65.4 75.6" enable-background="new 0 0 100 100"><path fill="#d90004" d="M50 12.2 17.3 31.1v37.8L50 87.8l32.7-18.9V31.1L50 12.2zM32.1 37.4 50 16l17 21.4H32.1zm35.2 2L50 70.4l-18.2-31h35.5zM48.1 71l-27.7-4.5 9.8-25.9L48.1 71zm20.8-30.3 10.7 25.9-27.7 4.5 17-30.4zm.3-3.6L52.6 16l27 15.6-10.4 5.5zm-39.4 0-9.4-5.5 26.8-15.5-17.4 21zm-1 1.7-9.5 25V33.3l9.5 5.5zM49 73.2v11.7L20.9 68.7 49 73.2zm2 0 28.1-4.5L51 84.9V73.2zm19.3-34.4 10.5-5.6v30.9L70.3 38.8z" data-fill-palette-color="accent" style="--darkreader-inline-fill:#000000"/></svg>

<svg xmlns="http://www.w3.org/2000/svg" xmlns:xlink="http://www.w3.org/1999/xlink" version="1.1" x="0" y="0" viewBox="17.299999237060547 12.199999809265137 65.39999389648438 75.60000610351562" style="enable-background:new 0 0 100 100;" xml:space="preserve" height="58.248" width="50.38913408639622" class="icon-s-0" data-fill-palette-color="accent" id="s-0"><path d="M50 12.2L17.3 31.1v37.8L50 87.8l32.7-18.9V31.1L50 12.2zM32.1 37.4L50 16l17 21.4H32.1zM67.3 39.4L50 70.4l-18.2-31H67.3zM48.1 71l-27.7-4.5 9.8-25.9L48.1 71zM68.9 40.7l10.7 25.9-27.7 4.5L68.9 40.7zM69.2 37.1L52.6 16l27 15.6L69.2 37.1zM29.8 37.1l-9.4-5.5 26.8-15.5L29.8 37.1zM28.8 38.8l-9.5 25V33.3L28.8 38.8zM49 73.2v11.7L20.9 68.7 49 73.2zM51 73.2l28.1-4.5L51 84.9V73.2zM70.3 38.8l10.5-5.6v30.9L70.3 38.8z" fill="#d90004" data-fill-palette-color="accent" style="--darkreader-inline-fill: #000000;" data-darkreader-inline-fill=""></path></svg>
